packages/icons/src/components/Icon/assets/small-outline/mosaic.svg

<svg width="16" height="16" viewBox="0 0 16 16" fill="none" xmlns="http://www.w3.org/2000/svg">
<path fill-rule="evenodd" clip-rule="evenodd" d="M1 3.38636C1 2.06841 2.06841 1 3.38636 1H5.11648C6.43443 1 7.50284 2.06841 7.50284 3.38636V5.11648C7.50284 6.43443 6.43443 7.50284 5.11648 7.50284H3.38636C2.06841 7.50284 1 6.43443 1 5.11648V3.38636ZM3.38636 2.3125C2.79329 2.3125 2.3125 2.79329 2.3125 3.38636V5.11648C2.3125 5.70956 2.79329 6.19034 3.38636 6.19034H5.11648C5.70956 6.19034 6.19034 5.70956 6.19034 5.11648V3.38636C6.19034 2.79329 5.70956 2.3125 5.11648 2.3125H3.38636ZM8.49716 3.38636C8.49716 2.06841 9.56557 1 10.8835 1H12.6136C13.9316 1 15 2.06841 15 3.38636V5.11648C15 6.43443 13.9316 7.50284 12.6136 7.50284H10.8835C9.56557 7.50284 8.49716 6.43443 8.49716 5.11648V3.38636ZM10.8835 2.3125C10.2904 2.3125 9.80966 2.79329 9.80966 3.38636V5.11648C9.80966 5.70956 10.2904 6.19034 10.8835 6.19034H12.6136C13.2067 6.19034 13.6875 5.70956 13.6875 5.11648V3.38636C13.6875 2.79329 13.2067 2.3125 12.6136 2.3125H10.8835ZM1 10.8835C1 9.56557 2.06841 8.49716 3.38636 8.49716H5.11648C6.43443 8.49716 7.50284 9.56557 7.50284 10.8835V12.6136C7.50284 13.9316 6.43443 15 5.11648 15H3.38636C2.06841 15 1 13.9316 1 12.6136V10.8835ZM3.38636 9.80966C2.79329 9.80966 2.3125 10.2904 2.3125 10.8835V12.6136C2.3125 13.2067 2.79329 13.6875 3.38636 13.6875H5.11648C5.70956 13.6875 6.19034 13.2067 6.19034 12.6136V10.8835C6.19034 10.2904 5.70956 9.80966 5.11648 9.80966H3.38636ZM8.49716 10.8835C8.49716 9.56557 9.56557 8.49716 10.8835 8.49716H12.6136C13.9316 8.49716 15 9.56557 15 10.8835V12.6136C15 13.9316 13.9316 15 12.6136 15H10.8835C9.56557 15 8.49716 13.9316 8.49716 12.6136V10.8835ZM10.8835 9.80966C10.2904 9.80966 9.80966 10.2904 9.80966 10.8835V12.6136C9.80966 13.2067 10.2904 13.6875 10.8835 13.6875H12.6136C13.2067 13.6875 13.6875 13.2067 13.6875 12.6136V10.8835C13.6875 10.2904 13.2067 9.80966 12.6136 9.80966H10.8835Z" fill="black"/>
</svg>

<svg xmlns="http://www.w3.org/2000/svg" width="16" height="16" fill="none" viewBox="0 0 16 16">
    <path fill="#000" fill-rule="evenodd" d="M1 3.386A2.386 2.386 0 0 1 3.386 1h1.73a2.386 2.386 0 0 1 2.387 2.386v1.73a2.386 2.386 0 0 1-2.387 2.387h-1.73A2.386 2.386 0 0 1 1 5.116zm2.386-1.074c-.593 0-1.074.481-1.074 1.074v1.73c0 .594.481 1.074 1.074 1.074h1.73c.594 0 1.074-.48 1.074-1.074v-1.73c0-.593-.48-1.074-1.074-1.074zm5.111 1.074A2.386 2.386 0 0 1 10.884 1h1.73A2.386 2.386 0 0 1 15 3.386v1.73a2.386 2.386 0 0 1-2.386 2.387h-1.73a2.386 2.386 0 0 1-2.387-2.387zm2.387-1.074c-.594 0-1.074.481-1.074 1.074v1.73c0 .594.48 1.074 1.073 1.074h1.73c.594 0 1.075-.48 1.075-1.074v-1.73c0-.593-.481-1.074-1.074-1.074zM1 10.885a2.386 2.386 0 0 1 2.386-2.387h1.73a2.386 2.386 0 0 1 2.387 2.387v1.73A2.386 2.386 0 0 1 5.116 15h-1.73A2.386 2.386 0 0 1 1 12.614zM3.386 9.81c-.593 0-1.074.48-1.074 1.073v1.73c0 .594.481 1.075 1.074 1.075h1.73c.594 0 1.074-.481 1.074-1.074v-1.73c0-.594-.48-1.074-1.074-1.074zm5.111 1.073a2.386 2.386 0 0 1 2.387-2.386h1.73A2.386 2.386 0 0 1 15 10.884v1.73A2.386 2.386 0 0 1 12.614 15h-1.73a2.386 2.386 0 0 1-2.387-2.386zm2.387-1.073c-.594 0-1.074.48-1.074 1.073v1.73c0 .594.48 1.075 1.073 1.075h1.73c.594 0 1.075-.481 1.075-1.074v-1.73c0-.594-.481-1.074-1.074-1.074z" clip-rule="evenodd"/>
</svg>
